svg/account_sync_outline.svg

<svg xmlns="http://www.w3.org/2000/svg" viewBox="0 0 24 24"><path d="M11 4C8.8 4 7 5.8 7 8s1.8 4 4 4 4-1.8 4-4-1.8-4-4-4m0 2c1.1 0 2 .9 2 2s-.9 2-2 2-2-.9-2-2 .9-2 2-2m0 7c-2.7 0-8 1.3-8 4v3h9.5c-.3-.6-.4-1.2-.5-1.9H4.9V17c0-.6 3.1-2.1 6.1-2.1.5 0 1 .1 1.5.1.3-.6.6-1.2 1.1-1.7-1-.2-1.9-.3-2.6-.3m7 7c-1.4 0-2.5-1.1-2.5-2.5 0-.4.1-.8.3-1.1l-1.1-1.1c-.4.6-.7 1.4-.7 2.2 0 2.2 1.8 4 4 4V23l2.2-2.2-2.2-2.3zm0-6.5V12l-2.2 2.2 2.2 2.2V15c1.4 0 2.5 1.1 2.5 2.5 0 .4-.1.8-.3 1.1l1.1 1.1c.4-.6.7-1.4.7-2.2 0-2.2-1.8-4-4-4"/></svg>

<svg xmlns="http://www.w3.org/2000/svg" id="mdi-account-sync-outline" viewBox="0 0 24 24"><path d="M11 4C8.8 4 7 5.8 7 8S8.8 12 11 12 15 10.2 15 8 13.2 4 11 4M11 6C12.1 6 13 6.9 13 8S12.1 10 11 10 9 9.1 9 8 9.9 6 11 6M11 13C8.3 13 3 14.3 3 17V20H12.5C12.2 19.4 12.1 18.8 12 18.1H4.9V17C4.9 16.4 8 14.9 11 14.9C11.5 14.9 12 15 12.5 15C12.8 14.4 13.1 13.8 13.6 13.3C12.6 13.1 11.7 13 11 13M18 20C16.6 20 15.5 18.9 15.5 17.5C15.5 17.1 15.6 16.7 15.8 16.4L14.7 15.3C14.3 15.9 14 16.7 14 17.5C14 19.7 15.8 21.5 18 21.5V23L20.2 20.8L18 18.5V20M18 13.5V12L15.8 14.2L18 16.4V15C19.4 15 20.5 16.1 20.5 17.5C20.5 17.9 20.4 18.3 20.2 18.6L21.3 19.7C21.7 19.1 22 18.3 22 17.5C22 15.3 20.2 13.5 18 13.5Z" /></svg>
